X: 1
T: norsken
R: polska
M: 3/4
L: 1/8
K: Amaj
|:c'2a c'a/c'/a/c'/ | c'bb d'd'c' | c'2a c'a/c'/a/c'/ | c'bb d'd'c' |
|c'2e f2c | e2B c/d/c2 | Bc/d/e f/g/ac | B>A G/A/B/G/A2 :|


